dist/images/icons/stacks/laravel.svg

<svg xmlns="http://www.w3.org/2000/svg" viewBox="-180 272 250 250"><path fill="#f35045" d="M-180 272H70v250h-250z"/><path d="M-34.7 454c-.9 0-1.7-.5-2.2-1.3l-19.5-32.6-36.5 9.9c-1.2.3-2.4-.2-3-1.3l-42.6-80.2c-.4-.7-.4-1.6 0-2.4.4-.8 1.1-1.3 2-1.4l36.2-4.9c1-.1 2 .3 2.6 1.2l43.8 73 50.8-13.8-17-23.9c-.5-.7-.6-1.6-.3-2.4.3-.8 1-1.4 1.8-1.6l23.8-5.6c1-.2 2 .1 2.6.9l20.6 25.7c.5.7.7 1.6.4 2.4-.3.8-.9 1.5-1.8 1.7l-21.7 5.9 18.9 26.6c.5.7.6 1.5.4 2.3-.2.8-.8 1.4-1.6 1.7l-56.8 19.9c-.4.2-.6.2-.9.2zm-16.6-35.2l17.7 29.5 51.6-18-18-25.4-51.3 13.9zm-80.9-69.3l39.9 75.1 33.1-9-42.1-70.3-30.9 4.2zm118.4 27.1l15.9 22.3 19.7-5.4-17.1-21.3-18.5 4.4z" fill="#fff"/></svg>

<?xml version="1.0" encoding="utf-8"?>
<!-- Generator: Adobe Illustrator 19.0.0, SVG Export Plug-In . SVG Version: 6.00 Build 0)  -->
<svg version="1.1" id="Calque_1" xmlns="http://www.w3.org/2000/svg" xmlns:xlink="http://www.w3.org/1999/xlink" x="0px" y="0px"
	 viewBox="-180 272 250 250" style="enable-background:new -180 272 250 250;" xml:space="preserve">
<style type="text/css">
	.st0{fill:#F35045;}
	.st1{fill:#FFFFFF;}
</style>
<rect x="-180" y="272" class="st0" width="250" height="250"/>
<g>
	<path class="st1" d="M-34.7,454c-0.9,0-1.7-0.5-2.2-1.3l-19.5-32.6l-36.5,9.9c-1.2,0.3-2.4-0.2-3-1.3l-42.6-80.2
		c-0.4-0.7-0.4-1.6,0-2.4c0.4-0.8,1.1-1.3,2-1.4l36.2-4.9c1-0.1,2,0.3,2.6,1.2l43.8,73l50.8-13.8l-17-23.9c-0.5-0.7-0.6-1.6-0.3-2.4
		c0.3-0.8,1-1.4,1.8-1.6l23.8-5.6c1-0.2,2,0.1,2.6,0.9l20.6,25.7c0.5,0.7,0.7,1.6,0.4,2.4c-0.3,0.8-0.9,1.5-1.8,1.7l-21.7,5.9
		l18.9,26.6c0.5,0.7,0.6,1.5,0.4,2.3c-0.2,0.8-0.8,1.4-1.6,1.7l-56.8,19.9C-34.2,454-34.4,454-34.7,454z M-51.3,418.8l17.7,29.5
		L18,430.3L0,404.9L-51.3,418.8z M-132.2,349.5l39.9,75.1l33.1-9l-42.1-70.3L-132.2,349.5z M-13.8,376.6l15.9,22.3l19.7-5.4
		L4.7,372.2L-13.8,376.6z"/>
</g>
</svg>
